app/assets/images/icons/weather/thunderstorms.svg

<svg width="32" height="232" viewBox="0 0 32 232" xmlns="http://www.w3.org/2000/svg"><g fill="none" fill-rule="evenodd"><path d="M23.46 4.9c-2.048 0-4.037.754-5.582 2.09C17.128 4.09 14.5 2 11.42 2 8.45 2 5.87 3.944 5.033 6.768 2.142 7.31 0 9.86 0 12.83c0 2.42 1.428 4.627 3.636 5.626.064.028.133.043.202.043h1.447l-.778 1.597c-.074.152-.064.33.025.475.09.142.246.23.415.23h2.257l-.502 5.325c-.02.21.098.41.293.495.063.027.13.04.194.04.137 0 .272-.058.366-.165L14.6 18.5h.29v7.044c0 .27.218.49.49.49.27 0 .488-.22.488-.49V18.5h1.618v10.695c0 .27.22.49.49.49s.49-.22.49-.49V18.5h1.616v8.687c0 .27.22.49.49.49s.49-.22.49-.49V18.5h1.617v10.695c0 .27.218.49.49.49.27 0 .488-.22.488-.49V18.5h1.618v7.044c0 .27.22.49.49.49s.49-.22.49-.49V18.5h3.83c.16 0 .31-.08.402-.212.99-1.433 1.512-3.11 1.512-4.848 0-4.708-3.83-8.54-8.54-8.54zM7.82 24.72l.41-4.362c.014-.137-.032-.274-.125-.375-.093-.102-.224-.16-.362-.16H5.73l.712-1.462c.075-.072.12-.17.136-.278l2.24-4.6h5.194l-2.667 4.17c-.07.066-.114.152-.137.248 0 .003 0 .005-.002.008-.007.034-.02.065-.02.102l.002.006c-.005.093.013.183.058.264.086.157.25.255.43.255h1.59L7.817 24.72zm22.005-7.2h-17.23l2.725-4.264c.096-.15.103-.342.017-.5-.086-.156-.25-.253-.43-.253H8.513c-.187 0-.358.106-.44.275l-2.31 4.742H3.946C2.14 16.66.98 14.83.98 12.83c0-2.59 1.937-4.803 4.506-5.144.2-.026.363-.173.412-.37.624-2.553 2.896-4.337 5.523-4.337 2.9 0 5.332 2.17 5.656 5.05.022.19.152.35.334.41.18.06.382.008.512-.133 1.45-1.565 3.42-2.427 5.54-2.427 4.168 0 7.56 3.392 7.56 7.56 0 1.454-.414 2.86-1.2 4.08z" fill="#3B444F"/><path d="M23.46 44.9c-2.048 0-4.037.754-5.582 2.09-.75-2.9-3.378-4.99-6.457-4.99-2.97 0-5.55 1.944-6.388 4.768C2.142 47.31 0 49.86 0 52.83c0 2.42 1.428 4.627 3.636 5.626.064.028.133.043.202.043h1.447l-.778 1.597c-.074.152-.064.33.025.475.09.142.246.23.415.23h2.257l-.502 5.325c-.02.21.098.41.293.495.063.027.13.04.194.04.137 0 .272-.058.366-.165L14.6 58.5h.29v7.044c0 .27.218.49.49.49.27 0 .488-.22.488-.49V58.5h1.618v10.695c0 .27.22.49.49.49s.49-.22.49-.49V58.5h1.616v8.687c0 .27.22.49.49.49s.49-.22.49-.49V58.5h1.617v10.695c0 .27.218.49.49.49.27 0 .488-.22.488-.49V58.5h1.618v7.044c0 .27.22.49.49.49s.49-.22.49-.49V58.5h3.83c.16 0 .31-.08.402-.212.99-1.433 1.512-3.11 1.512-4.848 0-4.708-3.83-8.54-8.54-8.54zM7.82 64.72l.41-4.362c.014-.137-.032-.274-.125-.375-.093-.102-.224-.16-.362-.16H5.73l.712-1.462c.075-.072.12-.17.136-.278l2.24-4.6h5.194l-2.667 4.17c-.07.066-.114.152-.137.248 0 .003 0 .005-.002.008-.007.034-.02.065-.02.102l.002.006c-.005.093.013.183.058.264.086.157.25.255.43.255h1.59L7.817 64.72zm22.005-7.2h-17.23l2.725-4.264c.096-.15.103-.342.017-.5-.086-.156-.25-.253-.43-.253H8.513c-.187 0-.358.106-.44.275l-2.31 4.742H3.946C2.14 56.66.98 54.83.98 52.83c0-2.59 1.937-4.803 4.506-5.144.2-.026.363-.173.412-.37.624-2.553 2.896-4.337 5.523-4.337 2.9 0 5.332 2.17 5.656 5.05.022.19.152.35.334.41.18.06.382.008.512-.133 1.45-1.565 3.42-2.427 5.54-2.427 4.168 0 7.56 3.392 7.56 7.56 0 1.454-.414 2.86-1.2 4.08z" fill="#67737B"/><path d="M23.46 84.9c-2.048 0-4.037.754-5.582 2.09-.75-2.9-3.378-4.99-6.457-4.99-2.97 0-5.55 1.944-6.388 4.768C2.142 87.31 0 89.86 0 92.83c0 2.42 1.428 4.627 3.636 5.626.064.028.133.043.202.043h1.447l-.778 1.597c-.074.152-.064.33.025.475.09.142.246.23.415.23h2.257l-.502 5.325c-.02.21.098.41.293.495.063.027.13.04.194.04.137 0 .272-.058.366-.165L14.6 98.5h.29v7.044c0 .27.218.49.49.49.27 0 .488-.22.488-.49V98.5h1.618v10.695c0 .27.22.49.49.49s.49-.22.49-.49V98.5h1.616v8.687c0 .27.22.49.49.49s.49-.22.49-.49V98.5h1.617v10.695c0 .27.218.49.49.49.27 0 .488-.22.488-.49V98.5h1.618v7.044c0 .27.22.49.49.49s.49-.22.49-.49V98.5h3.83c.16 0 .31-.08.402-.212.99-1.433 1.512-3.11 1.512-4.848 0-4.708-3.83-8.54-8.54-8.54zM7.82 104.72l.41-4.362c.014-.137-.032-.274-.125-.375-.093-.102-.224-.16-.362-.16H5.73l.712-1.462c.075-.072.12-.17.136-.278l2.24-4.6h5.194l-2.667 4.17c-.07.066-.114.152-.137.248 0 .003 0 .005-.002.008-.007.034-.02.065-.02.102l.002.006c-.005.093.013.183.058.264.086.157.25.255.43.255h1.59l-5.448 6.184zm22.005-7.2h-17.23l2.725-4.264c.096-.15.103-.342.017-.5-.086-.156-.25-.253-.43-.253H8.513c-.187 0-.358.106-.44.275l-2.31 4.742H3.946C2.14 96.66.98 94.83.98 92.83c0-2.59 1.937-4.803 4.506-5.144.2-.026.363-.173.412-.37.624-2.553 2.896-4.337 5.523-4.337 2.9 0 5.332 2.17 5.656 5.05.022.19.152.35.334.41.18.06.382.008.512-.133 1.45-1.565 3.42-2.427 5.54-2.427 4.168 0 7.56 3.392 7.56 7.56 0 1.454-.414 2.86-1.2 4.08z" fill="#fff"/><path d="M23.46 124.9c-2.048 0-4.037.754-5.582 2.09-.75-2.9-3.378-4.99-6.457-4.99-2.97 0-5.55 1.944-6.388 4.768C2.142 127.31 0 129.86 0 132.83c0 2.42 1.428 4.627 3.636 5.626.064.028.133.043.202.043h1.447l-.778 1.597c-.074.152-.064.33.025.475.09.142.246.23.415.23h2.257l-.502 5.325c-.02.21.098.41.293.495.063.027.13.04.194.04.137 0 .272-.058.366-.165L14.6 138.5h.29v7.044c0 .27.218.49.49.49.27 0 .488-.22.488-.49V138.5h1.618v10.695c0 .27.22.49.49.49s.49-.22.49-.49V138.5h1.616v8.687c0 .27.22.49.49.49s.49-.22.49-.49V138.5h1.617v10.695c0 .27.218.49.49.49.27 0 .488-.22.488-.49V138.5h1.618v7.044c0 .27.22.49.49.49s.49-.22.49-.49V138.5h3.83c.16 0 .31-.08.402-.212.99-1.433 1.512-3.11 1.512-4.848 0-4.708-3.83-8.54-8.54-8.54zM7.82 144.72l.41-4.362c.014-.137-.032-.274-.125-.375-.093-.102-.224-.16-.362-.16H5.73l.712-1.462c.075-.072.12-.17.136-.278l2.24-4.6h5.194l-2.667 4.17c-.07.066-.114.152-.137.248 0 .003 0 .005-.002.008-.007.034-.02.065-.02.102l.002.006c-.005.093.013.183.058.264.086.157.25.255.43.255h1.59l-5.448 6.184zm22.005-7.2h-17.23l2.725-4.264c.096-.15.103-.342.017-.5-.086-.156-.25-.253-.43-.253H8.513c-.187 0-.358.106-.44.275l-2.31 4.742H3.946C2.14 136.66.98 134.83.98 132.83c0-2.59 1.937-4.803 4.506-5.144.2-.026.363-.173.412-.37.624-2.553 2.896-4.337 5.523-4.337 2.9 0 5.332 2.17 5.656 5.05.022.19.152.35.334.41.18.06.382.008.512-.133 1.45-1.565 3.42-2.427 5.54-2.427 4.168 0 7.56 3.392 7.56 7.56 0 1.454-.414 2.86-1.2 4.08z" fill="#206FAC"/></g></svg>

<?xml version="1.0" encoding="UTF-8" standalone="no"?>
<svg width="32px" height="232px" viewBox="0 0 32 232" version="1.1" xmlns="http://www.w3.org/2000/svg" xmlns:xlink="http://www.w3.org/1999/xlink" xmlns:sketch="http://www.bohemiancoding.com/sketch/ns">
    <!-- Generator: Sketch 3.0.3 (7891) - http://www.bohemiancoding.com/sketch -->
    <title>thunderstorm</title>
    <desc>Created with Sketch.</desc>
    <defs></defs>
    <g id="Weather" stroke="none" stroke-width="1" fill="none" fill-rule="evenodd" sketch:type="MSPage">
        <path d="M23.461,4.901 C21.412,4.901 19.423,5.654 17.878,6.991 C17.128,4.089 14.5,2 11.421,2 C8.451,2 5.869,3.944 5.032,6.768 C2.141,7.31 0,9.86 0,12.831 C0,15.249 1.428,17.457 3.636,18.456 C3.7,18.484 3.769,18.499 3.838,18.499 L5.285,18.499 L4.507,20.097 C4.433,20.249 4.443,20.428 4.532,20.572 C4.622,20.714 4.778,20.802 4.947,20.802 L7.204,20.802 L6.702,26.127 C6.682,26.338 6.8,26.538 6.995,26.622 C7.058,26.649 7.124,26.662 7.189,26.662 C7.327,26.662 7.462,26.604 7.556,26.497 L14.601,18.499 L14.889,18.499 L14.889,25.544 C14.889,25.814 15.108,26.033 15.379,26.033 C15.65,26.033 15.868,25.814 15.868,25.544 L15.868,18.499 L17.486,18.499 L17.486,29.195 C17.486,29.466 17.705,29.684 17.976,29.684 C18.246,29.684 18.465,29.466 18.465,29.195 L18.465,18.499 L20.082,18.499 L20.082,27.187 C20.082,27.458 20.301,27.677 20.572,27.677 C20.842,27.677 21.061,27.458 21.061,27.187 L21.061,18.499 L22.679,18.499 L22.679,29.195 C22.679,29.466 22.898,29.684 23.169,29.684 C23.439,29.684 23.658,29.466 23.658,29.195 L23.658,18.499 L25.276,18.499 L25.276,25.544 C25.276,25.814 25.495,26.033 25.765,26.033 C26.036,26.033 26.255,25.814 26.255,25.544 L26.255,18.499 L30.085,18.499 C30.246,18.499 30.396,18.42 30.488,18.288 C31.477,16.855 32,15.179 32,13.44 C32,8.732 28.17,4.901 23.461,4.901 L23.461,4.901 Z M7.818,24.719 L8.228,20.358 C8.242,20.221 8.196,20.084 8.103,19.983 C8.01,19.881 7.879,19.823 7.741,19.823 L5.73,19.823 L6.442,18.361 C6.517,18.288 6.562,18.19 6.578,18.082 L8.818,13.482 L14.012,13.482 L11.345,17.653 C11.275,17.718 11.231,17.804 11.208,17.9 C11.207,17.903 11.207,17.905 11.206,17.908 C11.199,17.942 11.186,17.973 11.186,18.01 C11.186,18.013 11.188,18.016 11.188,18.016 C11.183,18.109 11.201,18.199 11.246,18.28 C11.332,18.437 11.496,18.535 11.675,18.535 L13.265,18.535 L7.818,24.719 L7.818,24.719 Z M29.823,17.52 L12.592,17.52 L15.318,13.256 C15.414,13.105 15.421,12.914 15.335,12.757 C15.249,12.6 15.084,12.503 14.906,12.503 L8.512,12.503 C8.325,12.503 8.154,12.609 8.072,12.778 L5.762,17.52 L3.946,17.52 C2.141,16.66 0.979,14.831 0.979,12.831 C0.979,10.239 2.917,8.027 5.486,7.686 C5.686,7.66 5.849,7.513 5.898,7.317 C6.522,4.763 8.794,2.979 11.421,2.979 C14.321,2.979 16.752,5.15 17.076,8.029 C17.098,8.219 17.228,8.38 17.41,8.44 C17.591,8.499 17.792,8.448 17.922,8.307 C19.373,6.742 21.341,5.88 23.461,5.88 C27.63,5.88 31.021,9.272 31.021,13.44 C31.021,14.894 30.608,16.3 29.823,17.52 L29.823,17.52 Z" id="thunderstorm" fill="#3B444F" sketch:type="MSShapeGroup"></path>
        <path d="M23.461,44.901 C21.412,44.901 19.423,45.654 17.878,46.991 C17.128,44.089 14.5,42 11.421,42 C8.451,42 5.869,43.944 5.032,46.768 C2.141,47.31 0,49.86 0,52.831 C0,55.249 1.428,57.457 3.636,58.456 C3.7,58.484 3.769,58.499 3.838,58.499 L5.285,58.499 L4.507,60.097 C4.433,60.249 4.443,60.428 4.532,60.572 C4.622,60.714 4.778,60.802 4.947,60.802 L7.204,60.802 L6.702,66.127 C6.682,66.338 6.8,66.538 6.995,66.622 C7.058,66.649 7.124,66.662 7.189,66.662 C7.327,66.662 7.462,66.604 7.556,66.497 L14.601,58.499 L14.889,58.499 L14.889,65.544 C14.889,65.814 15.108,66.033 15.379,66.033 C15.65,66.033 15.868,65.814 15.868,65.544 L15.868,58.499 L17.486,58.499 L17.486,69.195 C17.486,69.466 17.705,69.684 17.976,69.684 C18.246,69.684 18.465,69.466 18.465,69.195 L18.465,58.499 L20.082,58.499 L20.082,67.187 C20.082,67.458 20.301,67.677 20.572,67.677 C20.842,67.677 21.061,67.458 21.061,67.187 L21.061,58.499 L22.679,58.499 L22.679,69.195 C22.679,69.466 22.898,69.684 23.169,69.684 C23.439,69.684 23.658,69.466 23.658,69.195 L23.658,58.499 L25.276,58.499 L25.276,65.544 C25.276,65.814 25.495,66.033 25.765,66.033 C26.036,66.033 26.255,65.814 26.255,65.544 L26.255,58.499 L30.085,58.499 C30.246,58.499 30.396,58.42 30.488,58.288 C31.477,56.855 32,55.179 32,53.44 C32,48.732 28.17,44.901 23.461,44.901 L23.461,44.901 Z M7.818,64.719 L8.228,60.358 C8.242,60.221 8.196,60.084 8.103,59.983 C8.01,59.881 7.879,59.823 7.741,59.823 L5.73,59.823 L6.442,58.361 C6.517,58.288 6.562,58.19 6.578,58.082 L8.818,53.482 L14.012,53.482 L11.345,57.653 C11.275,57.718 11.231,57.804 11.208,57.9 C11.207,57.903 11.207,57.905 11.206,57.908 C11.199,57.942 11.186,57.973 11.186,58.01 C11.186,58.013 11.188,58.016 11.188,58.016 C11.183,58.109 11.201,58.199 11.246,58.28 C11.332,58.437 11.496,58.535 11.675,58.535 L13.265,58.535 L7.818,64.719 L7.818,64.719 Z M29.823,57.52 L12.592,57.52 L15.318,53.256 C15.414,53.105 15.421,52.914 15.335,52.757 C15.249,52.6 15.084,52.503 14.906,52.503 L8.512,52.503 C8.325,52.503 8.154,52.609 8.072,52.778 L5.762,57.52 L3.946,57.52 C2.141,56.66 0.979,54.831 0.979,52.831 C0.979,50.239 2.917,48.027 5.486,47.686 C5.686,47.66 5.849,47.513 5.898,47.317 C6.522,44.763 8.794,42.979 11.421,42.979 C14.321,42.979 16.752,45.15 17.076,48.029 C17.098,48.219 17.228,48.38 17.41,48.44 C17.591,48.499 17.792,48.448 17.922,48.307 C19.373,46.742 21.341,45.88 23.461,45.88 C27.63,45.88 31.021,49.272 31.021,53.44 C31.021,54.894 30.608,56.3 29.823,57.52 L29.823,57.52 Z" id="thunderstorm-2" fill="#67737B" sketch:type="MSShapeGroup"></path>
        <path d="M23.461,84.901 C21.412,84.901 19.423,85.654 17.878,86.991 C17.128,84.089 14.5,82 11.421,82 C8.451,82 5.869,83.944 5.032,86.768 C2.141,87.31 0,89.86 0,92.831 C0,95.249 1.428,97.457 3.636,98.456 C3.7,98.484 3.769,98.499 3.838,98.499 L5.285,98.499 L4.507,100.097 C4.433,100.249 4.443,100.428 4.532,100.572 C4.622,100.714 4.778,100.802 4.947,100.802 L7.204,100.802 L6.702,106.127 C6.682,106.338 6.8,106.538 6.995,106.622 C7.058,106.649 7.124,106.662 7.189,106.662 C7.327,106.662 7.462,106.604 7.556,106.497 L14.601,98.499 L14.889,98.499 L14.889,105.544 C14.889,105.814 15.108,106.033 15.379,106.033 C15.65,106.033 15.868,105.814 15.868,105.544 L15.868,98.499 L17.486,98.499 L17.486,109.195 C17.486,109.466 17.705,109.684 17.976,109.684 C18.246,109.684 18.465,109.466 18.465,109.195 L18.465,98.499 L20.082,98.499 L20.082,107.187 C20.082,107.458 20.301,107.677 20.572,107.677 C20.842,107.677 21.061,107.458 21.061,107.187 L21.061,98.499 L22.679,98.499 L22.679,109.195 C22.679,109.466 22.898,109.684 23.169,109.684 C23.439,109.684 23.658,109.466 23.658,109.195 L23.658,98.499 L25.276,98.499 L25.276,105.544 C25.276,105.814 25.495,106.033 25.765,106.033 C26.036,106.033 26.255,105.814 26.255,105.544 L26.255,98.499 L30.085,98.499 C30.246,98.499 30.396,98.42 30.488,98.288 C31.477,96.855 32,95.179 32,93.44 C32,88.732 28.17,84.901 23.461,84.901 L23.461,84.901 Z M7.818,104.719 L8.228,100.358 C8.242,100.221 8.196,100.084 8.103,99.983 C8.01,99.881 7.879,99.823 7.741,99.823 L5.73,99.823 L6.442,98.361 C6.517,98.288 6.562,98.19 6.578,98.082 L8.818,93.482 L14.012,93.482 L11.345,97.653 C11.275,97.718 11.231,97.804 11.208,97.9 C11.207,97.903 11.207,97.905 11.206,97.908 C11.199,97.942 11.186,97.973 11.186,98.01 C11.186,98.013 11.188,98.016 11.188,98.016 C11.183,98.109 11.201,98.199 11.246,98.28 C11.332,98.437 11.496,98.535 11.675,98.535 L13.265,98.535 L7.818,104.719 L7.818,104.719 Z M29.823,97.52 L12.592,97.52 L15.318,93.256 C15.414,93.105 15.421,92.914 15.335,92.757 C15.249,92.6 15.084,92.503 14.906,92.503 L8.512,92.503 C8.325,92.503 8.154,92.609 8.072,92.778 L5.762,97.52 L3.946,97.52 C2.141,96.66 0.979,94.831 0.979,92.831 C0.979,90.239 2.917,88.027 5.486,87.686 C5.686,87.66 5.849,87.513 5.898,87.317 C6.522,84.763 8.794,82.979 11.421,82.979 C14.321,82.979 16.752,85.15 17.076,88.029 C17.098,88.219 17.228,88.38 17.41,88.44 C17.591,88.499 17.792,88.448 17.922,88.307 C19.373,86.742 21.341,85.88 23.461,85.88 C27.63,85.88 31.021,89.272 31.021,93.44 C31.021,94.894 30.608,96.3 29.823,97.52 L29.823,97.52 Z" id="thunderstorm-3" fill="#FFFFFF" sketch:type="MSShapeGroup"></path>
        <path d="M23.461,124.901 C21.412,124.901 19.423,125.654 17.878,126.991 C17.128,124.089 14.5,122 11.421,122 C8.451,122 5.869,123.944 5.032,126.768 C2.141,127.31 0,129.86 0,132.831 C0,135.249 1.428,137.457 3.636,138.456 C3.7,138.484 3.769,138.499 3.838,138.499 L5.285,138.499 L4.507,140.097 C4.433,140.249 4.443,140.428 4.532,140.572 C4.622,140.714 4.778,140.802 4.947,140.802 L7.204,140.802 L6.702,146.127 C6.682,146.338 6.8,146.538 6.995,146.622 C7.058,146.649 7.124,146.662 7.189,146.662 C7.327,146.662 7.462,146.604 7.556,146.497 L14.601,138.499 L14.889,138.499 L14.889,145.544 C14.889,145.814 15.108,146.033 15.379,146.033 C15.65,146.033 15.868,145.814 15.868,145.544 L15.868,138.499 L17.486,138.499 L17.486,149.195 C17.486,149.466 17.705,149.684 17.976,149.684 C18.246,149.684 18.465,149.466 18.465,149.195 L18.465,138.499 L20.082,138.499 L20.082,147.187 C20.082,147.458 20.301,147.677 20.572,147.677 C20.842,147.677 21.061,147.458 21.061,147.187 L21.061,138.499 L22.679,138.499 L22.679,149.195 C22.679,149.466 22.898,149.684 23.169,149.684 C23.439,149.684 23.658,149.466 23.658,149.195 L23.658,138.499 L25.276,138.499 L25.276,145.544 C25.276,145.814 25.495,146.033 25.765,146.033 C26.036,146.033 26.255,145.814 26.255,145.544 L26.255,138.499 L30.085,138.499 C30.246,138.499 30.396,138.42 30.488,138.288 C31.477,136.855 32,135.179 32,133.44 C32,128.732 28.17,124.901 23.461,124.901 L23.461,124.901 Z M7.818,144.719 L8.228,140.358 C8.242,140.221 8.196,140.084 8.103,139.983 C8.01,139.881 7.879,139.823 7.741,139.823 L5.73,139.823 L6.442,138.361 C6.517,138.288 6.562,138.19 6.578,138.082 L8.818,133.482 L14.012,133.482 L11.345,137.653 C11.275,137.718 11.231,137.804 11.208,137.9 C11.207,137.903 11.207,137.905 11.206,137.908 C11.199,137.942 11.186,137.973 11.186,138.01 C11.186,138.013 11.188,138.016 11.188,138.016 C11.183,138.109 11.201,138.199 11.246,138.28 C11.332,138.437 11.496,138.535 11.675,138.535 L13.265,138.535 L7.818,144.719 L7.818,144.719 Z M29.823,137.52 L12.592,137.52 L15.318,133.256 C15.414,133.105 15.421,132.914 15.335,132.757 C15.249,132.6 15.084,132.503 14.906,132.503 L8.512,132.503 C8.325,132.503 8.154,132.609 8.072,132.778 L5.762,137.52 L3.946,137.52 C2.141,136.66 0.979,134.831 0.979,132.831 C0.979,130.239 2.917,128.027 5.486,127.686 C5.686,127.66 5.849,127.513 5.898,127.317 C6.522,124.763 8.794,122.979 11.421,122.979 C14.321,122.979 16.752,125.15 17.076,128.029 C17.098,128.219 17.228,128.38 17.41,128.44 C17.591,128.499 17.792,128.448 17.922,128.307 C19.373,126.742 21.341,125.88 23.461,125.88 C27.63,125.88 31.021,129.272 31.021,133.44 C31.021,134.894 30.608,136.3 29.823,137.52 L29.823,137.52 Z" id="thunderstorm-4" fill="#206FAC" sketch:type="MSShapeGroup"></path>
    </g>
</svg>
